X:1
T:In the Sunshine of His Smile
T:In the Sunshine of His Smile
T:Delma Huckaba Brock
T:Sylvia Lee, 1917
T:Public Domain Courtesy of the Cyber Hymnal™
T:Public Domain Courtesy of the Cyber Hymnal™
C:Delma Huckaba Brock
Z:Public Domain
Z:Courtesy of the Cyber Hymnal™
%%score ( 1 2 ) ( 3 4 )
L:1/8
Q:1/4=94
M:4/4
K:Bb
V:1 treble 
V:2 treble 
V:3 bass 
V:4 bass 
V:1
 [DF][DG] | [DB][DB][DB][Ec] [Fd][Fd][FB][FB] | [EG][EB][EB][EG] [DF]2 [DF][DF] | %3
w: 1.~How my|heart with joy is thrill- ing Since I|found the liv- ing way, And am|
w: 2.~I have|sweet com- mun- ion with Him As His|will He helps me do, Striv- ing|
w: 3.~He is|shar- ing all my bur- dens, Giv- ing|glad- ness, peace and rest; O how|
 [FB][FB][FB][Fc] [Fd][Fd][=EB][EB] | [Fc]6 [Fd][Ec] | [DB][DB][DB][Fc] [Fd][Fd][FB][FB] | %6
w: trust- ing in my Sav- ior all the|while! He has|par- doned my trans- gress- ions, Turn- ing|
w: lost ones un- to Him to re- con-|cile; By the|grace and strength He gives me, I can|
w: sweet to be no long- er an ex-|ile! Know- ing|Je- sus loves and keeps me, I am|
 [EG][EB][EB][EG] [DF]2 [DF][DF] | [FB][FB][FB][Gc] [Fd][Fd][Fc][Ec] | [DB]6 || %9
w: dark- ness in- to day, And I’m|liv- ing in the sun- shine of His|smile.|
w: ev- er- more be true, Glad- ly|keep- ing in the sun- shine of His|smile.|
w: now su- preme- ly blest, For there’s|Hea- ven in the sun- shine of His|smile.|
"^Refrain" [Fd][Fd] | B4- [DB][DF][DG][DB] | d6 [DF][DF] | [FB][FB][FB][Fc] [Fd][Fd][=EB][EB] | %13
w: ||||
w: In the|sun- shine of His smile,|* There is|joy and com- fort for each wear- y|
w: ||||
 c6 [Fd][Ec] | [DB][DB][DB][Ec] [Fd][Fd][FB][FA] | [EG][EG][EG][EG] !fermata![Ge]2 [Fd][Ec] | %16
w: |||
w: mile; And when|earth- ly life is o- ver, I shall|with the ran- somed throng Dwell for-|
w: |||
 [DB][DB][FB][Gc] [Fd][DB][Ec][Ec] | B6 |] %18
w: ||
w: ev- er in the sun- shine of His|smile.|
w: ||
V:2
 x2 | x8 | x8 | x8 | x8 | x8 | x8 | x8 | x6 || x2 | D D D D x4 | (FFGG F2) x2 | x8 | (FFFF F2) x2 | %14
 x8 | x8 | x8 | (DD^CE D2) |] %18
V:3
 [B,,B,][B,,B,] | [B,,F,][B,,F,][B,,F,][B,,F,] [B,,B,][B,,B,][D,B,][D,B,] | %2
w: ||
 [E,B,][E,G,][E,G,][E,B,] [B,,B,]2 [B,,B,][B,,B,] | [B,,D][B,,D][D,B,][F,A,] B,B,[G,C][G,B,] | %4
w: |* * * * sun- shine, * *|
 [F,A,]6 B,[F,A,] | [G,B,][G,B,][G,B,][F,A,] B,B,[D,B,][D,B,] | %6
w: * in *|* * * * the sun\- * *|
 [E,B,][E,G,][E,G,][E,B,] [B,,B,]2 [B,,B,][B,,B,] | %7
w: |
 [B,,D][B,,D][D,B,][E,B,] [F,B,][F,B,][F,A,][F,A,] | [B,,B,]6 || [B,,B,][B,,B,] | %10
w: |||
 [B,,F,][B,,F,][B,,F,][B,,F,] [B,,F,][B,,B,][B,,B,][B,,F,] | %11
w: yes, of His smile each * * *|
 [B,,B,][B,,B,][G,,B,][G,,B,] [B,,B,]2 [B,,B,][B,,B,] | [B,,D][B,,D][D,B,][F,A,] B,B,[G,C][G,B,] | %13
w: * wea- ry mile, yes, * *|* * * * of His * *|
 [F,A,][F,A,][F,A,][F,A,] [F,A,]2 [F,B,][F,A,] | %14
w: * smile. * * * * *|
 [B,,B,][B,,F,][B,,F,][B,,F,] [B,,B,][B,,B,][D,B,][D,B,] | %15
w: |
 [E,B,][E,B,][E,B,][E,B,] !fermata![E,B,]2 B,[F,A,] | %16
w: |
 [G,B,][G,B,][D,B,][E,B,] [F,B,][F,B,][F,A,][F,A,] | B,F,=E,G, F,2 |] %18
w: ||
V:4
 x2 | x8 | x8 | x4 B,B, x2 | x6 B, x | x4 B,B, x2 | x8 | x8 | x6 || x2 | x8 | x8 | x4 B,B, x2 | %13
 x8 | x8 | x6 B, x | x8 | B,,6 |] %18

